X:550
T: Top to Bottom
S: B.Breathnach:"Ceol Rince na hEireann" IV/111 (gan ainm)
Z: B.Black
L: 1/8
M: 4/4
R: reel
K: G
(3d/e/f/|g2 AG (3EFG DG|EGDC B,DG,B|cecA BcdB|cBbf gfed|
Bbbb Baaa|Bbbf gfgd|egfa gedB|cedc BG G2 ||
gdga bgag|bgag eaaf|gdga bgaf|gedc BG G2|
gdga bgag|bgag eaaf|(3gab eg (3fga df|gfef gabf ||
